client/src/assets/kathmandu.svg

<svg width="60" height="60" viewBox="0 0 60 60" version="1.1" xmlns="http://www.w3.org/2000/svg" xmlns:xlink="http://www.w3.org/1999/xlink">
<title>Frame 5.2</title>
<desc>Created using Figma</desc>
<g id="Canvas" transform="translate(-1735 -4945)">
<clipPath id="clip-0" clip-rule="evenodd">
<path d="M 1735 4945L 1795 4945L 1795 5005L 1735 5005L 1735 4945Z" fill="#FFFFFF"/>
</clipPath>
<g id="Frame 5.2" clip-path="url(#clip-0)">
<g id="Vector">
<use xlink:href="#path0_stroke" transform="translate(1737.9 4998.69)" fill="#102B7B"/>
</g>
<g id="Mask Group">
<mask id="mask0_alpha" mask-type="alpha">
<g id="Union">
<use xlink:href="#path1_fill" transform="translate(1743.48 4985.01)" fill="#C4C4C4"/>
</g>
</mask>
<g id="Union" mask="url(#mask0_alpha)">
<use xlink:href="#path1_fill" transform="translate(1747.69 4985.01)" fill="#D9F5FD"/>
</g>
</g>
<g id="Union">
<mask id="mask1_outline_ins">
<use xlink:href="#path1_fill" fill="white" transform="translate(1743.48 4985.01)"/>
</mask>
<g mask="url(#mask1_outline_ins)">
<use xlink:href="#path2_stroke_2x" transform="translate(1743.48 4985.01)" fill="#102B7B"/>
</g>
</g>
<g id="Mask Group">
<mask id="mask2_alpha" mask-type="alpha">
<g id="Rectangle 2.1">
<use xlink:href="#path3_fill" transform="translate(1757.35 4975.36)" fill="#C4C4C4"/>
</g>
</mask>
<g id="Rectangle 2.2" mask="url(#mask2_alpha)">
<use xlink:href="#path3_fill" transform="translate(1759.93 4975.36)" fill="#D9F5FD"/>
</g>
<g id="Rectangle 2" mask="url(#mask2_alpha)">
<mask id="mask3_outline_ins">
<use xlink:href="#path3_fill" fill="white" transform="translate(1757.35 4975.36)"/>
</mask>
<g mask="url(#mask3_outline_ins)">
<use xlink:href="#path4_stroke_2x" transform="translate(1757.35 4975.36)" fill="#102B7B"/>
</g>
</g>
</g>
<g id="Rectangle 3.3">
<mask id="mask4_outline_ins">
<use xlink:href="#path5_fill" fill="white" transform="translate(1756.25 4975.36)"/>
</mask>
<g mask="url(#mask4_outline_ins)">
<use xlink:href="#path6_stroke_2x" transform="translate(1756.25 4975.36)" fill="#102B7B"/>
</g>
</g>
<g id="Mask Group">
<mask id="mask5_alpha" mask-type="alpha">
<g id="Rectangle 4.1">
<use xlink:href="#path7_fill" transform="translate(1758.53 4959.9)" fill="#C4C4C4"/>
</g>
</mask>
<g id="Rectangle 4.2" mask="url(#mask5_alpha)">
<use xlink:href="#path7_fill" transform="translate(1761.07 4959.9)" fill="#D9F5FD"/>
</g>
</g>
<g id="Rectangle 4">
<mask id="mask6_outline_ins">
<use xlink:href="#path8_fill" fill="white" transform="translate(1758.53 4959.9)"/>
</mask>
<g mask="url(#mask6_outline_ins)">
<use xlink:href="#path9_stroke_2x" transform="translate(1758.53 4959.9)" fill="#102B7B"/>
</g>
</g>
<g id="Rectangle 3.1">
<mask id="mask7_outline_ins">
<use xlink:href="#path10_fill" fill="white" transform="translate(1761.02 4959.9)"/>
</mask>
<g mask="url(#mask7_outline_ins)">
<use xlink:href="#path11_stroke_2x" transform="translate(1761.02 4959.9)" fill="#102B7B"/>
</g>
</g>
<g id="Rectangle 3.2">
<mask id="mask8_outline_ins">
<use xlink:href="#path12_fill" fill="white" transform="translate(1764.35 4956.23)"/>
</mask>
<g mask="url(#mask8_outline_ins)">
<use xlink:href="#path13_stroke_2x" transform="translate(1764.35 4956.23)" fill="#102B7B"/>
</g>
</g>
<g id="Vector 2">
<use xlink:href="#path14_stroke" transform="translate(1760.8 4979.81)" fill="#102B7B"/>
</g>
<g id="Vector 3">
<use xlink:href="#path15_stroke" transform="translate(1764.97 4979.88)" fill="#102B7B"/>
</g>
</g>
</g>
<defs>
<path id="path0_stroke" d="M 0 -0.75C -0.414214 -0.75 -0.75 -0.414214 -0.75 0C -0.75 0.414214 -0.414214 0.75 0 0.75L 0 -0.75ZM 54.2079 0.75C 54.6221 0.75 54.9579 0.414214 54.9579 0C 54.9579 -0.414214 54.6221 -0.75 54.2079 -0.75L 54.2079 0.75ZM 0 0.75L 54.2079 0.75L 54.2079 -0.75L 0 -0.75L 0 0.75Z"/>
<path id="path1_fill" d="M 14.0909 0L 28.9413 0C 36.6727 1.17345 43.0322 8.20664 43.0322 14.3903L 0 14.3903C 0 8.20664 6.35953 1.17345 14.0909 0Z"/>
<path id="path2_stroke_2x" d="M 14.0909 0L 14.0909 -1.5L 13.9777 -1.5L 13.8658 -1.48302L 14.0909 0ZM 28.9413 0L 29.1664 -1.48302L 29.0545 -1.5L 28.9413 -1.5L 28.9413 0ZM 43.0322 14.3903L 43.0322 15.8903L 44.5322 15.8903L 44.5322 14.3903L 43.0322 14.3903ZM 0 14.3903L -1.5 14.3903L -1.5 15.8903L 0 15.8903L 0 14.3903ZM 28.7162 1.48302C 32.3082 2.00135 35.4006 3.81597 37.801 6.35205C 40.1748 8.83872 41.5322 11.7905 41.5322 14.3903L 44.5322 14.3903C 44.5322 10.8064 42.71 7.14977 39.9711 4.28058C 37.2589 1.4608 33.3059 -0.827906 29.1664 -1.48302L 28.7162 1.48302ZM 13.8658 -1.48302C 9.7264 -0.827906 5.77336 1.4608 3.06117 4.28058C 0.322294 7.14977 -1.5 10.8064 -1.5 14.3903L 1.5 14.3903C 1.5 11.7905 2.85747 8.83872 5.2312 6.35205C 7.63162 3.81597 10.724 2.00135 14.316 1.48302L 13.8658 -1.48302ZM 28.9413 -1.5L 14.0909 -1.5L 14.0909 1.5L 28.9413 1.5L 28.9413 -1.5ZM 43.0322 12.8903L 0 12.8903L 0 15.8903L 43.0322 15.8903L 43.0322 12.8903Z"/>
<path id="path3_fill" d="M 0 0L 15.2931 0L 15.2931 11.1071L 0 11.1071L 0 0Z"/>
<path id="path4_stroke_2x" d="M 0 0L 0 -1.5L -1.5 -1.5L -1.5 0L 0 0ZM 15.2931 0L 16.7931 0L 16.7931 -1.5L 15.2931 -1.5L 15.2931 0ZM 15.2931 11.1071L 15.2931 12.6071L 16.7931 12.6071L 16.7931 11.1071L 15.2931 11.1071ZM 0 11.1071L -1.5 11.1071L -1.5 12.6071L 0 12.6071L 0 11.1071ZM 0 1.5L 15.2931 1.5L 15.2931 -1.5L 0 -1.5L 0 1.5ZM 13.7931 0L 13.7931 11.1071L 16.7931 11.1071L 16.7931 0L 13.7931 0ZM 15.2931 9.60706L 0 9.60706L 0 12.6071L 15.2931 12.6071L 15.2931 9.60706ZM 1.5 11.1071L 1.5 0L -1.5 0L -1.5 11.1071L 1.5 11.1071Z"/>
<path id="path5_fill" d="M 0 0.938105C 0 0.420004 0.420004 0 0.938105 0L 16.556 0C 17.0741 0 17.4941 0.420004 17.4941 0.938105C 17.4941 1.45621 17.0741 1.87621 16.556 1.87621L 0.938105 1.87621C 0.420004 1.87621 0 1.45621 0 0.938105Z"/>
<path id="path6_stroke_2x" d="M 0.938105 1.5L 16.556 1.5L 16.556 -1.5L 0.938105 -1.5L 0.938105 1.5ZM 16.556 0.37621L 0.938105 0.37621L 0.938105 3.37621L 16.556 3.37621L 16.556 0.37621ZM 0.938105 0.37621C 1.24843 0.37621 1.5 0.62778 1.5 0.938105L -1.5 0.938105C -1.5 2.28463 -0.408424 3.37621 0.938105 3.37621L 0.938105 0.37621ZM 15.9941 0.938105C 15.9941 0.627779 16.2457 0.37621 16.556 0.37621L 16.556 3.37621C 17.9025 3.37621 18.9941 2.28463 18.9941 0.938105L 15.9941 0.938105ZM 16.556 1.5C 16.2457 1.5 15.9941 1.24843 15.9941 0.938105L 18.9941 0.938105C 18.9941 -0.408422 17.9025 -1.5 16.556 -1.5L 16.556 1.5ZM 0.938105 -1.5C -0.408423 -1.5 -1.5 -0.408423 -1.5 0.938105L 1.5 0.938105C 1.5 1.24843 1.24843 1.5 0.938105 1.5L 0.938105 -1.5Z"/>
<path id="path7_fill" d="M 3.9617 0L 8.8243 0L 12.786 16.6379L 0 16.6379L 3.9617 0Z"/>
<path id="path8_fill" d="M 4.00923 0L 8.93015 0L 12.9394 16.9439L 0 16.9439L 4.00923 0Z"/>
<path id="path9_stroke_2x" d="M 4.00923 0L 4.00923 -1.5L 2.82274 -1.5L 2.54954 -0.34539L 4.00923 0ZM 8.93015 0L 10.3898 -0.34539L 10.1166 -1.5L 8.93015 -1.5L 8.93015 0ZM 12.9394 16.9439L 12.9394 18.4439L 14.8357 18.4439L 14.3991 16.5985L 12.9394 16.9439ZM 0 16.9439L -1.45969 16.5985L -1.89635 18.4439L 0 18.4439L 0 16.9439ZM 4.00923 1.5L 8.93015 1.5L 8.93015 -1.5L 4.00923 -1.5L 4.00923 1.5ZM 7.47046 0.34539L 11.4797 17.2893L 14.3991 16.5985L 10.3898 -0.34539L 7.47046 0.34539ZM 12.9394 15.4439L 0 15.4439L 0 18.4439L 12.9394 18.4439L 12.9394 15.4439ZM 1.45969 17.2893L 5.46892 0.34539L 2.54954 -0.34539L -1.45969 16.5985L 1.45969 17.2893Z"/>
<path id="path10_fill" d="M 0 0.938105C 0 0.420004 0.420004 0 0.938105 0L 7.02198 0C 7.54008 0 7.96009 0.420004 7.96009 0.938105C 7.96009 1.45621 7.54008 1.87621 7.02198 1.87621L 0.938105 1.87621C 0.420004 1.87621 0 1.45621 0 0.938105Z"/>
<path id="path11_stroke_2x" d="M 0.938105 1.5L 7.02198 1.5L 7.02198 -1.5L 0.938105 -1.5L 0.938105 1.5ZM 7.02198 0.37621L 0.938105 0.37621L 0.938105 3.37621L 7.02198 3.37621L 7.02198 0.37621ZM 0.938105 0.37621C 1.24843 0.37621 1.5 0.627779 1.5 0.938105L -1.5 0.938105C -1.5 2.28463 -0.408423 3.37621 0.938105 3.37621L 0.938105 0.37621ZM 6.46009 0.938105C 6.46009 0.627779 6.71166 0.37621 7.02198 0.37621L 7.02198 3.37621C 8.36851 3.37621 9.46009 2.28463 9.46009 0.938105L 6.46009 0.938105ZM 7.02198 1.5C 6.71166 1.5 6.46009 1.24843 6.46009 0.938105L 9.46009 0.938105C 9.46009 -0.408423 8.36851 -1.5 7.02198 -1.5L 7.02198 1.5ZM 0.938105 -1.5C -0.408423 -1.5 -1.5 -0.408423 -1.5 0.938105L 1.5 0.938105C 1.5 1.24843 1.24843 1.5 0.938105 1.5L 0.938105 -1.5Z"/>
<path id="path12_fill" d="M 0 0.652922C 0 0.292323 0.292323 0 0.652922 0C 1.01352 0 1.30584 0.292323 1.30584 0.652922L 1.30584 4.61192L 0 4.61192L 0 0.652922Z"/>
<path id="path13_stroke_2x" d="M 1.30584 4.61192L 1.30584 6.11192L 2.80584 6.11192L 2.80584 4.61192L 1.30584 4.61192ZM 0 4.61192L -1.5 4.61192L -1.5 6.11192L 0 6.11192L 0 4.61192ZM -0.194156 0.652922L -0.194156 4.61192L 2.80584 4.61192L 2.80584 0.652922L -0.194156 0.652922ZM 1.30584 3.11192L 0 3.11192L 0 6.11192L 1.30584 6.11192L 1.30584 3.11192ZM 1.5 4.61192L 1.5 0.652922L -1.5 0.652922L -1.5 4.61192L 1.5 4.61192ZM 0.652922 1.5C 0.185094 1.5 -0.194156 1.12075 -0.194156 0.652922L 2.80584 0.652922C 2.80584 -0.536104 1.84195 -1.5 0.652922 -1.5L 0.652922 1.5ZM 0.652922 -1.5C -0.536104 -1.5 -1.5 -0.536104 -1.5 0.652922L 1.5 0.652922C 1.5 1.12075 1.12075 1.5 0.652922 1.5L 0.652922 -1.5Z"/>
<path id="path14_stroke" d="M 5.0975e-05 -0.75C -0.414163 -0.75 -0.749949 -0.414214 -0.749949 0C -0.749949 0.414214 -0.414163 0.75 5.0975e-05 0.75L 5.0975e-05 -0.75ZM 8.40679 0.75C 8.821 0.75 9.15679 0.414214 9.15679 0C 9.15679 -0.414214 8.821 -0.75 8.40679 -0.75L 8.40679 0.75ZM 5.0975e-05 0.75L 8.40679 0.75L 8.40679 -0.75L 5.0975e-05 -0.75L 5.0975e-05 0.75Z"/>
<path id="path15_stroke" d="M 0.75 0C 0.75 -0.414214 0.414214 -0.75 0 -0.75C -0.414214 -0.75 -0.75 -0.414214 -0.75 0L 0.75 0ZM -0.75 5.82617C -0.75 6.24039 -0.414214 6.57617 0 6.57617C 0.414214 6.57617 0.75 6.24039 0.75 5.82617L -0.75 5.82617ZM -0.75 0L -0.75 5.82617L 0.75 5.82617L 0.75 0L -0.75 0Z"/>
</defs>
</svg>

<svg width="60" height="60" xmlns="http://www.w3.org/2000/svg" xmlns:xlink="http://www.w3.org/1999/xlink"><g transform="translate(-1735 -4945)"><clipPath id="a" clip-rule="evenodd"><path d="M1735 4945h60v60h-60v-60z" fill="#FFF"/></clipPath><g clip-path="url(#a)"><use xlink:href="#path0_stroke" transform="translate(1737.9 4998.69)" fill="#102B7B"/><mask id="b"><use xlink:href="#path1_fill" transform="translate(1743.48 4985.01)" fill="#C4C4C4"/></mask><g mask="url(#b)"><use xlink:href="#path1_fill" transform="translate(1747.69 4985.01)" fill="#D9F5FD"/></g><mask id="c"><use xlink:href="#path1_fill" fill="#fff" transform="translate(1743.48 4985.01)"/></mask><g mask="url(#c)"><use xlink:href="#path2_stroke_2x" transform="translate(1743.48 4985.01)" fill="#102B7B"/></g><mask id="d"><use xlink:href="#path3_fill" transform="translate(1757.35 4975.36)" fill="#C4C4C4"/></mask><g mask="url(#d)"><use xlink:href="#path3_fill" transform="translate(1759.93 4975.36)" fill="#D9F5FD"/></g><g mask="url(#d)"><mask id="e"><use xlink:href="#path3_fill" fill="#fff" transform="translate(1757.35 4975.36)"/></mask><g mask="url(#e)"><use xlink:href="#path4_stroke_2x" transform="translate(1757.35 4975.36)" fill="#102B7B"/></g></g><mask id="f"><use xlink:href="#path5_fill" fill="#fff" transform="translate(1756.25 4975.36)"/></mask><g mask="url(#f)"><use xlink:href="#path6_stroke_2x" transform="translate(1756.25 4975.36)" fill="#102B7B"/></g><mask id="g"><use xlink:href="#path7_fill" transform="translate(1758.53 4959.9)" fill="#C4C4C4"/></mask><g mask="url(#g)"><use xlink:href="#path7_fill" transform="translate(1761.07 4959.9)" fill="#D9F5FD"/></g><g><mask id="h"><use xlink:href="#path8_fill" fill="#fff" transform="translate(1758.53 4959.9)"/></mask><g mask="url(#h)"><use xlink:href="#path9_stroke_2x" transform="translate(1758.53 4959.9)" fill="#102B7B"/></g></g><g><mask id="i"><use xlink:href="#path10_fill" fill="#fff" transform="translate(1761.02 4959.9)"/></mask><g mask="url(#i)"><use xlink:href="#path11_stroke_2x" transform="translate(1761.02 4959.9)" fill="#102B7B"/></g></g><g><mask id="j"><use xlink:href="#path12_fill" fill="#fff" transform="translate(1764.35 4956.23)"/></mask><g mask="url(#j)"><use xlink:href="#path13_stroke_2x" transform="translate(1764.35 4956.23)" fill="#102B7B"/></g></g><g><use xlink:href="#path14_stroke" transform="translate(1760.8 4979.81)" fill="#102B7B"/></g><g><use xlink:href="#path15_stroke" transform="translate(1764.97 4979.88)" fill="#102B7B"/></g></g></g><defs><path id="path0_stroke" d="M0-.75a.75.75 0 100 1.5v-1.5zM54.208.75a.75.75 0 000-1.5v1.5zM0 .75h54.208v-1.5H0v1.5z"/><path id="path1_fill" d="M14.09 0h14.851c7.732 1.173 14.091 8.207 14.091 14.39H0C0 8.207 6.36 1.173 14.09 0z"/><path id="path2_stroke_2x" d="M14.09 0v-1.5h-.112l-.112.017L14.09 0zm14.851 0l.225-1.483-.111-.017h-.114V0zm14.091 14.39v1.5h1.5v-1.5h-1.5zM0 14.39h-1.5v1.5H0v-1.5zM28.716 1.483c3.592.518 6.685 2.333 9.085 4.869 2.374 2.487 3.731 5.438 3.731 8.038h3c0-3.584-1.822-7.24-4.56-10.11-2.713-2.82-6.666-5.108-10.806-5.763l-.45 2.966zm-14.85-2.966C9.726-.828 5.773 1.461 3.06 4.281.322 7.15-1.5 10.806-1.5 14.39h3c0-2.6 1.357-5.552 3.731-8.039 2.4-2.536 5.493-4.35 9.085-4.869l-.45-2.966zM28.94-1.5h-14.85v3h14.85v-3zm14.091 14.39H0v3h43.032v-3z"/><path id="path3_fill" d="M0 0h15.293v11.107H0V0z"/><path id="path4_stroke_2x" d="M0 0v-1.5h-1.5V0H0zm15.293 0h1.5v-1.5h-1.5V0zm0 11.107v1.5h1.5v-1.5h-1.5zM0 11.107h-1.5v1.5H0v-1.5zM0 1.5h15.293v-3H0v3zM13.793 0v11.107h3V0h-3zm1.5 9.607H0v3h15.293v-3zM1.5 11.107V0h-3v11.107h3z"/><path id="path5_fill" d="M0 .938C0 .42.42 0 .938 0h15.618a.938.938 0 010 1.876H.938A.938.938 0 010 .938z"/><path id="path6_stroke_2x" d="M.938 1.5h15.618v-3H.938v3zM16.556.376H.938v3h15.618v-3zM.938.376c.31 0 .562.252.562.562h-3A2.438 2.438 0 00.938 3.376v-3zm15.056.562c0-.31.252-.562.562-.562v3A2.438 2.438 0 0018.994.938h-3zm.562.562a.562.562 0 01-.562-.562h3A2.438 2.438 0 0016.556-1.5v3zM.938-1.5A2.438 2.438 0 00-1.5.938h3c0 .31-.252.562-.562.562v-3z"/><path id="path7_fill" d="M3.962 0h4.862l3.962 16.638H0L3.962 0z"/><path id="path8_fill" d="M4.01 0h4.92l4.01 16.944H0L4.01 0z"/><path id="path9_stroke_2x" d="M4.01 0v-1.5H2.822L2.55-.345 4.01 0zm4.92 0l1.46-.345-.273-1.155H8.93V0zm4.01 16.944v1.5h1.896l-.437-1.845-1.46.345zm-12.94 0l-1.46-.345-.436 1.845H0v-1.5zM4.01 1.5h4.92v-3H4.01v3zM7.47.345l4.01 16.944 2.92-.69L10.39-.345l-2.92.69zm5.47 15.099H0v3h12.94v-3zM1.46 17.289L5.469.345l-2.92-.69-4.009 16.944 2.92.69z"/><path id="path10_fill" d="M0 .938C0 .42.42 0 .938 0h6.084a.938.938 0 010 1.876H.938A.938.938 0 010 .938z"/><path id="path11_stroke_2x" d="M.938 1.5h6.084v-3H.938v3zM7.022.376H.938v3h6.084v-3zm-6.084 0c.31 0 .562.252.562.562h-3A2.438 2.438 0 00.938 3.376v-3zM6.46.938c0-.31.252-.562.562-.562v3A2.438 2.438 0 009.46.938h-3zm.562.562A.562.562 0 016.46.938h3A2.438 2.438 0 007.022-1.5v3zm-6.084-3A2.438 2.438 0 00-1.5.938h3c0 .31-.252.562-.562.562v-3z"/><path id="path12_fill" d="M0 .653a.653.653 0 111.306 0v3.959H0V.652z"/><path id="path13_stroke_2x" d="M1.306 4.612v1.5h1.5v-1.5h-1.5zM0 4.612h-1.5v1.5H0v-1.5zM-.194.652v3.96h3V.652h-3zm1.5 2.46H0v3h1.306v-3zm.194 1.5V.652h-3v3.96h3zM.653 1.5A.847.847 0 01-.194.653h3A2.153 2.153 0 00.653-1.5v3zm0-3A2.153 2.153 0 00-1.5.653h3c0 .468-.38.847-.847.847v-3z"/><path id="path14_stroke" d="M0-.75a.75.75 0 100 1.5v-1.5zM8.407.75a.75.75 0 000-1.5v1.5zM0 .75h8.407v-1.5H0v1.5z"/><path id="path15_stroke" d="M.75 0a.75.75 0 10-1.5 0h1.5zm-1.5 5.826a.75.75 0 101.5 0h-1.5zM-.75 0v5.826h1.5V0h-1.5z"/></defs></svg>
